build/category/BonusOutline.svg

<svg xmlns="http://www.w3.org/2000/svg" fill="none" viewBox="0 0 24 24" focusable="false"><path d="M0 0H24V24H0z"/><path fill="#74767B" fill-rule="evenodd" d="M17.3629 4.60066C17.4959 5.2263 17.3849 5.83739 17.1014 6.34543C18.7113 6.39891 20 7.72083 20 9.34375L20 17C20 18.6569 18.6569 20 17 20L7 20C5.34315 20 4 18.6569 4 17L4 9.34375C4 7.72083 5.28868 6.3989 6.89859 6.34543C6.61509 5.83738 6.50406 5.2263 6.63714 4.60066L6.65508 4.51632C6.83169 3.68603 7.43971 3.01405 8.24827 2.75555C9.70266 2.29057 11.2069 2.88308 12 4.05244C12.7931 2.88308 14.2973 2.29057 15.7517 2.75555C16.5603 3.01405 17.1683 3.68603 17.3449 4.51632L17.3629 4.60066ZM11.3439 6.33744L9.09589 6.33744C8.3239 6.33744 7.74807 5.62624 7.90869 4.87114L7.92663 4.7868C8.00617 4.41286 8.28 4.11023 8.64414 3.99381C9.83545 3.61294 11.0818 4.40018 11.2497 5.63958L11.3441 6.33612L11.3439 6.33744ZM12.6561 6.33744L14.9041 6.33744C15.6761 6.33744 16.2519 5.62624 16.0913 4.87114L16.0734 4.7868C15.9938 4.41286 15.72 4.11023 15.3559 3.99381C14.1645 3.61294 12.9182 4.40018 12.7503 5.63958L12.6559 6.33612L12.6561 6.33744ZM15.5 7.64375L17 7.64375C17.9389 7.64375 18.7 8.40486 18.7 9.34375L18.7 11.9827L15.5 11.9827L15.5 7.64375ZM15.5 13.2827L15.5 16.2985C15.5 16.8687 14.8547 17.1997 14.3916 16.8669L12 15.1488L9.60843 16.8669C9.14532 17.1997 8.5 16.8687 8.5 16.2985L8.5 13.2827L5.3 13.2827L5.3 17C5.3 17.9389 6.06112 18.7 7 18.7L17 18.7C17.9389 18.7 18.7 17.9389 18.7 17L18.7 13.2827L15.5 13.2827ZM8.5 11.9827L5.3 11.9827L5.3 9.34375C5.3 8.40486 6.06112 7.64375 7 7.64375L8.5 7.64375L8.5 11.9827ZM14.2 15.1286L14.2 7.64375L9.8 7.64375L9.8 15.1286L11.2415 14.093C11.6947 13.7673 12.3053 13.7673 12.7585 14.093L14.2 15.1286Z"/></svg>

<svg xmlns="http://www.w3.org/2000/svg" fill="none" viewBox="0 0 24 24" focusable="false"><path fill="#74767B" fill-rule="evenodd" d="M17.36 4.6c.13.62.02 1.23-.26 1.74 1.61.05 2.9 1.38 2.9 3V17c0 1.65-1.35 3-3 3H7c-1.66 0-3-1.35-3-3V9.34c0-1.62 1.28-2.95 2.89-3-.28-.51-.39-1.12-.26-1.74l.02-.09c.18-.83.78-1.5 1.59-1.76 1.46-.46 2.96.13 3.76 1.3a3.31 3.31 0 0 1 3.75-1.3c.81.26 1.41.93 1.59 1.76zm-6.02 1.73H9.09c-.77 0-1.35-.71-1.19-1.46l.02-.09c.08-.37.35-.67.72-.79 1.19-.38 2.44.41 2.6 1.64zm1.31 0h2.25c.77 0 1.35-.71 1.19-1.46l-.02-.09c-.08-.37-.35-.67-.72-.79-1.19-.38-2.44.41-2.6 1.64zm2.85 1.31H17c.93 0 1.7.76 1.7 1.7v2.64h-3.2zm0 5.64v3.01c0 .57-.65.9-1.11.57L12 15.14l-2.4 1.72c-.46.33-1.1 0-1.1-.57v-3.01H5.29V17c0 .93.77 1.7 1.71 1.7h10c.93 0 1.7-.77 1.7-1.7v-3.72zm-7-1.3H5.29V9.34c0-.94.77-1.7 1.71-1.7h1.5zm5.7 3.14V7.64H9.79v7.48l1.45-1.03c.45-.33 1.06-.33 1.51 0z"/></svg>
